Infinity-Icons/Infinity-Dark-Icons/apps/48/calligrakexi.svg

<svg width="48" xmlns="http://www.w3.org/2000/svg" height="48" xmlns:xlink="http://www.w3.org/1999/xlink">
 <defs>
  <linearGradient id="a" y1="4.716" x1="17.483" y2="39.833" x2="37.758" gradientUnits="userSpaceOnUse" gradientTransform="matrix(-.99376-.00423.00423.98887 47.823 2.34)">
   <stop stop-color="#3fc380"/>
   <stop offset="1" stop-color="#3f8ed3"/>
  </linearGradient>
  <linearGradient xlink:href="#a" id="b" y1="4.716" x1="17.483" y2="39.833" x2="37.758" gradientUnits="userSpaceOnUse" gradientTransform="matrix(-.99376-.00423.00423.98887 47.823 31.34)"/>
  <linearGradient xlink:href="#a" id="c" y1="4.716" x1="17.483" y2="39.833" x2="37.758" gradientUnits="userSpaceOnUse" gradientTransform="matrix(-.99376-.00423.00423.98887 47.823 16.34)"/>
  <linearGradient id="d" y1="4.716" x1="17.483" y2="39.833" x2="37.758" gradientUnits="userSpaceOnUse" gradientTransform="matrix(-.99376-.0067.00423 1.56572 47.823 12.372)">
   <stop stop-color="#148e76"/>
   <stop offset="1" stop-color="#218059"/>
  </linearGradient>
  <linearGradient id="e" y1="18" x1="4" y2="31" x2="43" gradientUnits="userSpaceOnUse" gradientTransform="translate(0-2)">
   <stop stop-color="#292c2f"/>
   <stop offset="1" stop-opacity="0"/>
  </linearGradient>
  <linearGradient xlink:href="#e" id="f" y1="18" x1="4" y2="31" x2="43" gradientUnits="userSpaceOnUse" gradientTransform="translate(0 14)"/>
  <linearGradient xlink:href="#d" id="g" y1="4.716" x1="17.483" y2="39.833" x2="37.758" gradientUnits="userSpaceOnUse" gradientTransform="matrix(.99376.0067-.00423-1.56572.177 35.628)"/>
 </defs>
 <g stroke-linejoin="bevel" stroke-width="2">
  <path fill="url(#g)" d="m42 18h-36l-2-2h40z"/>
  <path fill="url(#d)" d="m6 30h36l2 2h-40z"/>
  <path fill="url(#a)" d="m4 4h40v12h-40z"/>
  <path fill="url(#b)" d="m4 32h40v12h-40z"/>
  <path fill="url(#c)" d="m4 18h40v12h-40z"/>
 </g>
 <g fill-rule="evenodd">
  <path opacity=".2" fill="url(#e)" d="m4 18l12 12h28v-12z"/>
  <path opacity=".2" fill="url(#f)" d="m4 32l12 12h28v-12z"/>
 </g>
 <path opacity=".1" stroke-linejoin="bevel" stroke-width="2" d="m4 43h40v1h-40z"/>
</svg>

<?xml version="1.0" encoding="UTF-8" standalone="no"?>
<svg
   width="48"
   height="48"
   version="1.1"
   id="svg7714"
   sodipodi:docname="calligrakexi.svg"
   inkscape:version="1.2.1 (9c6d41e410, 2022-07-14)"
   xmlns:inkscape="http://www.inkscape.org/namespaces/inkscape"
   xmlns:sodipodi="http://sodipodi.sourceforge.net/DTD/sodipodi-0.dtd"
   xmlns:xlink="http://www.w3.org/1999/xlink"
   xmlns="http://www.w3.org/2000/svg"
   xmlns:svg="http://www.w3.org/2000/svg">
  <sodipodi:namedview
     id="namedview7716"
     pagecolor="#ffffff"
     bordercolor="#666666"
     borderopacity="1.0"
     inkscape:showpageshadow="2"
     inkscape:pageopacity="0.0"
     inkscape:pagecheckerboard="0"
     inkscape:deskcolor="#d1d1d1"
     showgrid="false"
     inkscape:zoom="4.9166667"
     inkscape:cx="24"
     inkscape:cy="-8.5423728"
     inkscape:window-width="1920"
     inkscape:window-height="1009"
     inkscape:window-x="0"
     inkscape:window-y="0"
     inkscape:window-maximized="1"
     inkscape:current-layer="svg7714" />
  <defs
     id="defs7692">
    <linearGradient
       id="a"
       y1="4.716"
       x1="17.483"
       y2="39.833"
       x2="37.758"
       gradientUnits="userSpaceOnUse"
       gradientTransform="matrix(-.99376-.00423.00423.98887 47.823 2.34)">
      <stop
         stop-color="#3fc380"
         id="stop7673" />
      <stop
         offset="1"
         stop-color="#3f8ed3"
         id="stop7675" />
    </linearGradient>
    <linearGradient
       xlink:href="#a"
       id="b"
       y1="4.716"
       x1="17.483"
       y2="39.833"
       x2="37.758"
       gradientUnits="userSpaceOnUse"
       gradientTransform="matrix(-0.99376,-0.00423,0.00423,0.98887,47.823,31.34)" />
    <linearGradient
       xlink:href="#a"
       id="c"
       y1="4.716"
       x1="17.483"
       y2="39.833"
       x2="37.758"
       gradientUnits="userSpaceOnUse"
       gradientTransform="matrix(-0.99376,-0.00423,0.00423,0.98887,47.823,16.34)" />
    <linearGradient
       id="d"
       y1="4.716"
       x1="17.483"
       y2="39.833"
       x2="37.758"
       gradientUnits="userSpaceOnUse"
       gradientTransform="matrix(-.99376-.0067.00423 1.56572 47.823 12.372)">
      <stop
         stop-color="#148e76"
         id="stop7680" />
      <stop
         offset="1"
         stop-color="#218059"
         id="stop7682" />
    </linearGradient>
    <linearGradient
       id="e"
       y1="18"
       x1="4"
       y2="31"
       x2="43"
       gradientUnits="userSpaceOnUse"
       gradientTransform="translate(0-2)">
      <stop
         stop-color="#292c2f"
         id="stop7685" />
      <stop
         offset="1"
         stop-opacity="0"
         id="stop7687" />
    </linearGradient>
    <linearGradient
       xlink:href="#e"
       id="f"
       y1="18"
       x1="4"
       y2="31"
       x2="43"
       gradientUnits="userSpaceOnUse"
       gradientTransform="translate(0,14)" />
    <linearGradient
       xlink:href="#d"
       id="g"
       y1="4.716"
       x1="17.483"
       y2="39.833"
       x2="37.758"
       gradientUnits="userSpaceOnUse"
       gradientTransform="matrix(0.99376,0.0067,-0.00423,-1.56572,0.177,35.628)" />
    <linearGradient
       xlink:href="#linearGradient4141"
       id="linearGradient4151"
       gradientUnits="userSpaceOnUse"
       x1="4.0000024"
       y1="43.999989"
       x2="43.999992"
       y2="3.9999998"
       gradientTransform="matrix(1.0499999,0,0,1.0499999,-1.1999977,-1.1999999)" />
    <linearGradient
       id="linearGradient4141">
      <stop
         style="stop-color:#55ff99;stop-opacity:1"
         offset="0"
         id="stop7" />
      <stop
         style="stop-color:#b7c8be;stop-opacity:1"
         offset="1"
         id="stop9" />
    </linearGradient>
    <linearGradient
       id="linearGradient4267">
      <stop
         style="stop-color:#6c5548;stop-opacity:1"
         offset="0"
         id="stop2233" />
      <stop
         style="stop-color:#bb9d71;stop-opacity:1"
         offset="1"
         id="stop2235" />
    </linearGradient>
    <linearGradient
       id="linearGradient4349">
      <stop
         style="stop-color:#000000;stop-opacity:1;"
         offset="0"
         id="stop2228" />
      <stop
         style="stop-color:#000000;stop-opacity:0;"
         offset="1"
         id="stop2230" />
    </linearGradient>
    <linearGradient
       id="linearGradient6951">
      <stop
         style="stop-color:#ffa92d;stop-opacity:1"
         offset="0"
         id="stop2239" />
      <stop
         style="stop-color:#cd7223;stop-opacity:1"
         offset="1"
         id="stop2241" />
    </linearGradient>
    <linearGradient
       id="linearGradient4176">
      <stop
         style="stop-color:#6f8181;stop-opacity:1"
         offset="0"
         id="stop2213" />
      <stop
         style="stop-color:#b0b8b8;stop-opacity:1"
         offset="1"
         id="stop2215" />
    </linearGradient>
    <radialGradient
       cx="15.415"
       cy="35.356998"
       r="7.579"
       fx="15.415"
       fy="35.356998"
       id="radialGradient6969-2-2"
       xlink:href="#linearGradient4215"
       gradientUnits="userSpaceOnUse"
       gradientTransform="matrix(-0.13301244,-0.43217082,0.4400097,-0.12407274,90.575086,19.46246)" />
    <linearGradient
       id="linearGradient4215">
      <stop
         offset="0"
         style="stop-color:#334545;stop-opacity:1"
         id="stop2218" />
      <stop
         offset="1"
         style="stop-color:#172525;stop-opacity:1"
         id="stop2220" />
    </linearGradient>
    <radialGradient
       xlink:href="#linearGradient4209"
       id="radialGradient4289-9-9"
       cx="13.5"
       cy="21.5"
       fx="13.5"
       fy="21.5"
       r="4.5"
       gradientUnits="userSpaceOnUse"
       gradientTransform="matrix(0.70835583,0,0,0.70835609,74.845144,-18.943259)" />
    <linearGradient
       id="linearGradient4209">
      <stop
         offset="0"
         style="stop-color:#cfd5d5;stop-opacity:1"
         id="stop2223" />
      <stop
         offset="1"
         style="stop-color:#fcfcfc;stop-opacity:1"
         id="stop2225" />
    </linearGradient>
    <radialGradient
       xlink:href="#linearGradient4215"
       id="radialGradient4335-0-0"
       cx="3.4960001"
       cy="22.823"
       fx="3.4960001"
       fy="22.823"
       r="5.5"
       gradientTransform="matrix(0.70835583,0,0,0.77275206,74.845144,-20.617556)"
       gradientUnits="userSpaceOnUse" />
    <radialGradient
       xlink:href="#linearGradient4209"
       id="radialGradient4281-6-6"
       cx="22"
       cy="22"
       fx="22"
       fy="22"
       r="5"
       gradientUnits="userSpaceOnUse"
       gradientTransform="matrix(0.70835583,0,0,0.70835609,74.845144,-18.943259)" />
    <radialGradient
       xlink:href="#linearGradient4215"
       id="radialGradient4282-2-2"
       cx="23.5"
       cy="22.5"
       fx="23.5"
       fy="22.5"
       r="2.5"
       gradientUnits="userSpaceOnUse"
       gradientTransform="matrix(0.70835583,0,0,0.70835609,74.845144,-18.943259)" />
    <radialGradient
       xlink:href="#linearGradient4215"
       id="radialGradient4290-6-6"
       cx="14.5"
       cy="21.5"
       fx="14.5"
       fy="21.5"
       r="2.5"
       gradientUnits="userSpaceOnUse"
       gradientTransform="matrix(0.56668469,0,0,0.5666849,77.253551,-15.543151)" />
    <linearGradient
       inkscape:collect="always"
       xlink:href="#d"
       id="linearGradient9064"
       gradientUnits="userSpaceOnUse"
       gradientTransform="matrix(0.99376,0.0067,-0.00423,-1.56572,0.177,35.628)"
       x1="17.483"
       y1="4.716"
       x2="37.758"
       y2="39.833" />
    <linearGradient
       inkscape:collect="always"
       xlink:href="#d"
       id="linearGradient9066"
       gradientUnits="userSpaceOnUse"
       gradientTransform="matrix(-0.99376,-0.0067,0.00423,1.56572,47.823,12.372)"
       x1="17.483"
       y1="4.716"
       x2="37.758"
       y2="39.833" />
    <linearGradient
       inkscape:collect="always"
       xlink:href="#a"
       id="linearGradient9068"
       gradientUnits="userSpaceOnUse"
       gradientTransform="matrix(-0.99376,-0.00423,0.00423,0.98887,47.823,2.34)"
       x1="17.483"
       y1="4.716"
       x2="37.758"
       y2="39.833" />
    <linearGradient
       inkscape:collect="always"
       xlink:href="#a"
       id="linearGradient9070"
       gradientUnits="userSpaceOnUse"
       gradientTransform="matrix(-0.99376,-0.00423,0.00423,0.98887,47.823,31.34)"
       x1="17.483"
       y1="4.716"
       x2="37.758"
       y2="39.833" />
    <linearGradient
       inkscape:collect="always"
       xlink:href="#a"
       id="linearGradient9072"
       gradientUnits="userSpaceOnUse"
       gradientTransform="matrix(-0.99376,-0.00423,0.00423,0.98887,47.823,16.34)"
       x1="17.483"
       y1="4.716"
       x2="37.758"
       y2="39.833" />
    <linearGradient
       inkscape:collect="always"
       xlink:href="#e"
       id="linearGradient9074"
       gradientUnits="userSpaceOnUse"
       gradientTransform="translate(0,-2)"
       x1="4"
       y1="18"
       x2="43"
       y2="31" />
    <linearGradient
       inkscape:collect="always"
       xlink:href="#e"
       id="linearGradient9076"
       gradientUnits="userSpaceOnUse"
       gradientTransform="translate(0,14)"
       x1="4"
       y1="18"
       x2="43"
       y2="31" />
  </defs>
  <rect
     style="fill:url(#linearGradient4151);fill-opacity:1;stroke:none;stroke-width:1.05"
     width="41.999985"
     height="41.999985"
     x="3.0000076"
     y="3"
     ry="20.999992"
     rx="20.999992"
     id="rect16" />
  <g
     stroke-linejoin="bevel"
     stroke-width="2"
     id="g7704-6"
     transform="matrix(0.625,0,0,0.625,9,9)">
    <path
       fill="url(#g)"
       d="M 42,18 H 6 L 4,16 h 40 z"
       id="path7694-2"
       style="fill:url(#linearGradient9064)" />
    <path
       fill="url(#d)"
       d="m 6,30 h 36 l 2,2 H 4 Z"
       id="path7696-9"
       style="fill:url(#linearGradient9066)" />
    <path
       fill="url(#a)"
       d="M 4,4 H 44 V 16 H 4 Z"
       id="path7698-1"
       style="fill:url(#linearGradient9068)" />
    <path
       fill="url(#b)"
       d="M 4,32 H 44 V 44 H 4 Z"
       id="path7700-2"
       style="fill:url(#linearGradient9070)" />
    <path
       fill="url(#c)"
       d="M 4,18 H 44 V 30 H 4 Z"
       id="path7702-7"
       style="fill:url(#linearGradient9072)" />
  </g>
  <g
     fill-rule="evenodd"
     id="g7710-0"
     transform="matrix(0.625,0,0,0.625,9,9)">
    <path
       opacity="0.2"
       fill="url(#e)"
       d="M 4,18 16,30 H 44 V 18 Z"
       id="path7706-9"
       style="fill:url(#linearGradient9074)" />
    <path
       opacity="0.2"
       fill="url(#f)"
       d="M 4,32 16,44 H 44 V 32 Z"
       id="path7708-3"
       style="fill:url(#linearGradient9076)" />
  </g>
  <path
     opacity="0.1"
     stroke-linejoin="bevel"
     stroke-width="1.25"
     d="M 11.5,35.875 H 36.499998 V 36.5 H 11.5 Z"
     id="path7712-6" />
</svg>
